X:1
T:Old Blue
M:4/4
L:1/8
Q:1/4=92
K:G
% OMR draft -- verify by ear. Chords/form follow the photo (G D7 C D).
% A part
"G" D G B G B2 B G |"D7" A2 A G "G" B G "D7" A G |"G" D G B G B2 B G |\
"D7" A2 A F A F E ^D |"G" D G B d d2 A B |"G" e d e d e d B G |\
"G" B A G E D B, D B,|"G" G,2 D2 G,2 z2 |
% B part
|:"G" G B d B G2 B G |"C" E D C E "G" D2 D2 |"G" g e d B g2 d B |\
"D7" A B c A "G" B2 z2 |"G" g e d B g e d B |"C" e d c B "D7" A2 B2 |\
"D7" e d c A "G" B G D B,|"G" G,2 D2 G,2 z2 :|
